ExtensionSource/app/images/contacts-icon.svg

<svg id="e2gTSUZul3z1" xmlns="http://www.w3.org/2000/svg" xmlns:xlink="http://www.w3.org/1999/xlink" viewBox="0 0 16 16" shape-rendering="geometricPrecision" text-rendering="geometricPrecision"><path d="M11.2935,11.3393c0-.3393-.0178-.6578-.0535-.9554-.0298-.2976-.0923-.59521-.1875-.89283-.0893-.30357-.2054-.55952-.3483-.76786-.1428-.21428-.3333-.3869-.5714-.51785C9.89472,8.06845,9.62388,8,9.32031,8c-.03571.02381-.1369.08631-.30357.1875-.16071.09524-.28571.16667-.375.21429s-.21131.10714-.36607.17857c-.14881.07143-.29464.12202-.4375.15178-.1369.02976-.27381.04465-.41071.04465s-.27679-.01489-.41965-.04465c-.1369-.02976-.28274-.08035-.4375-.15178-.14881-.07143-.26785-.13096-.35714-.17857s-.21726-.11905-.38393-.21429C5.66853,8.08631,5.57031,8.02381,5.5346,8c-.30357,0-.57441.06845-.8125.20536-.2381.13095-.42857.30357-.57143.51785-.14286.20834-.26191.46429-.35714.76786-.08929.29762-.15179.59523-.1875.89283-.02977.2976-.04465.6161-.04465.9554c0,.4345.125.7976.375,1.0893.25.2857.55655.4285.91965.4285h5.14285c.36312,0,.66962-.1428.91962-.4285.25-.2917.375-.6548.375-1.0893ZM9.74888,6.03571c0-.64285-.22916-1.19047-.6875-1.64285-.45238-.45238-.99702-.67858-1.63392-.67858s-1.18453.2262-1.64286.67858c-.45238.45238-.67857,1-.67857,1.64285c0,.63691.22619,1.18155.67857,1.63393.45833.45238,1.00595.67857,1.64286.67857s1.18154-.22619,1.63392-.67857c.45834-.45238.6875-.99702.6875-1.63393ZM15.4275,10.8571v1.7143c0,.0834-.0268.1518-.0804.2054s-.122.0803-.2054.0803h-.8571v2c0,.3929-.1399.7292-.4196,1.009s-.6161.4196-1.009.4196h-10.85712c-.39285,0-.72916-.1399-1.008925-.4196s-.419643-.6161-.419643-1.009v-13.14282c0-.39285.139881-.729162.419643-1.008923s.616075-.419644,1.008925-.419644h10.85712c.3929,0,.7292.139881,1.009.419644s.4196.616073.4196,1.008923v2h.8571c.0834,0,.1518.02679.2054.08036s.0804.12203.0804.20536v1.71428c0,.08334-.0268.15179-.0804.20536s-.122.08036-.2054.08036h-.8571v1.14286h.8571c.0834,0,.1518.02678.2054.08035s.0804.12203.0804.20536v1.71429c0,.08333-.0268.15178-.0804.20535s-.122.08036-.2054.08036h-.8571v1.14283h.8571c.0834,0,.1518.0268.2054.0804s.0804.122.0804.2053Z" fill="#fff"/></svg>

<svg width="16" height="16" viewBox="0 0 16 16" fill="none" xmlns="http://www.w3.org/2000/svg">
<path d="M11.2935 11.3393C11.2935 11 11.2757 10.6815 11.24 10.3839C11.2102 10.0863 11.1477 9.78869 11.0525 9.49107C10.9632 9.1875 10.8471 8.93155 10.7042 8.72321C10.5614 8.50893 10.3709 8.33631 10.1328 8.20536C9.89472 8.06845 9.62388 8 9.32031 8C9.2846 8.02381 9.18341 8.08631 9.01674 8.1875C8.85603 8.28274 8.73103 8.35417 8.64174 8.40179C8.55246 8.4494 8.43043 8.50893 8.27567 8.58036C8.12686 8.65179 7.98103 8.70238 7.83817 8.73214C7.70127 8.7619 7.56436 8.77679 7.42746 8.77679C7.29055 8.77679 7.15067 8.7619 7.00781 8.73214C6.87091 8.70238 6.72507 8.65179 6.57031 8.58036C6.4215 8.50893 6.30246 8.4494 6.21317 8.40179C6.12388 8.35417 5.99591 8.28274 5.82924 8.1875C5.66853 8.08631 5.57031 8.02381 5.5346 8C5.23103 8 4.96019 8.06845 4.7221 8.20536C4.484 8.33631 4.29353 8.50893 4.15067 8.72321C4.00781 8.93155 3.88876 9.1875 3.79353 9.49107C3.70424 9.78869 3.64174 10.0863 3.60603 10.3839C3.57626 10.6815 3.56138 11 3.56138 11.3393C3.56138 11.7738 3.68638 12.1369 3.93638 12.4286C4.18638 12.7143 4.49293 12.8571 4.85603 12.8571H9.99888C10.362 12.8571 10.6685 12.7143 10.9185 12.4286C11.1685 12.1369 11.2935 11.7738 11.2935 11.3393ZM9.74888 6.03571C9.74888 5.39286 9.51972 4.84524 9.06138 4.39286C8.609 3.94048 8.06436 3.71428 7.42746 3.71428C6.79055 3.71428 6.24293 3.94048 5.7846 4.39286C5.33222 4.84524 5.10603 5.39286 5.10603 6.03571C5.10603 6.67262 5.33222 7.21726 5.7846 7.66964C6.24293 8.12202 6.79055 8.34821 7.42746 8.34821C8.06436 8.34821 8.609 8.12202 9.06138 7.66964C9.51972 7.21726 9.74888 6.67262 9.74888 6.03571ZM15.4275 10.8571V12.5714C15.4275 12.6548 15.4007 12.7232 15.3471 12.7768C15.2935 12.8304 15.2251 12.8571 15.1417 12.8571H14.2846V14.8571C14.2846 15.25 14.1447 15.5863 13.865 15.8661C13.5852 16.1458 13.2489 16.2857 12.856 16.2857H1.99888C1.60603 16.2857 1.26972 16.1458 0.989955 15.8661C0.710193 15.5863 0.570312 15.25 0.570312 14.8571V1.71428C0.570312 1.32143 0.710193 0.985118 0.989955 0.705357C1.26972 0.425594 1.60603 0.285713 1.99888 0.285713H12.856C13.2489 0.285713 13.5852 0.425594 13.865 0.705357C14.1447 0.985118 14.2846 1.32143 14.2846 1.71428V3.71428H15.1417C15.2251 3.71428 15.2935 3.74107 15.3471 3.79464C15.4007 3.84821 15.4275 3.91667 15.4275 4V5.71428C15.4275 5.79762 15.4007 5.86607 15.3471 5.91964C15.2935 5.97321 15.2251 6 15.1417 6H14.2846V7.14286H15.1417C15.2251 7.14286 15.2935 7.16964 15.3471 7.22321C15.4007 7.27679 15.4275 7.34524 15.4275 7.42857V9.14286C15.4275 9.22619 15.4007 9.29464 15.3471 9.34821C15.2935 9.40179 15.2251 9.42857 15.1417 9.42857H14.2846V10.5714H15.1417C15.2251 10.5714 15.2935 10.5982 15.3471 10.6518C15.4007 10.7054 15.4275 10.7738 15.4275 10.8571Z" fill="#24292E"/>
</svg>
